app/images/ben-02-smile.svg

<?xml version="1.0" encoding="utf-8"?>
<!-- Generator: Adobe Illustrator 16.0.0, SVG Export Plug-In . SVG Version: 6.00 Build 0)  -->
<!DOCTYPE svg PUBLIC "-//W3C//DTD SVG 1.1//EN" "http://www.w3.org/Graphics/SVG/1.1/DTD/svg11.dtd">
<svg version="1.1" id="Layer_1" xmlns="http://www.w3.org/2000/svg" xmlns:xlink="http://www.w3.org/1999/xlink" x="0px" y="0px"
	 width="42px" height="34px" viewBox="0 0 42 34" enable-background="new 0 0 42 34" xml:space="preserve">
<title>Shape</title>
<desc>Created with Sketch.</desc>
<g id="Page-1">
	<path id="Shape" fill="#333366" d="M10.5,2.5C11.9,2.5,13,3,13,5h2c0-3-2-4.5-4.5-4.5S6,2,6,5h2C8,3,9.1,2.5,10.5,2.5L10.5,2.5z
		 M31.5,2.5C32.9,2.5,34,3,34,5h2c0-3-2-4.5-4.5-4.5S27,2,27,5h2C29,3,30.1,2.5,31.5,2.5L31.5,2.5z M21,34c8.5,0,16-5.5,19.9-14.6
		l0.6-1.4h-41l0.6,1.4C5,28.5,12.5,34,21,34L21,34z M38.4,20C34.7,27.5,28.3,32,21,32S7.3,27.5,3.6,20H38.4L38.4,20z"/>
</g>
</svg>

<?xml version="1.0" encoding="UTF-8" standalone="no"?>
<svg width="42px" height="34px" viewBox="0 0 42 34" version="1.1" xmlns="http://www.w3.org/2000/svg" xmlns:xlink="http://www.w3.org/1999/xlink">
    <!-- Generator: Sketch 40 (33762) - http://www.bohemiancoding.com/sketch -->
    <title>Shape</title>
    <desc>Created with Sketch.</desc>
    <defs></defs>
    <g id="Page-1" stroke="none" stroke-width="1" fill="none" fill-rule="evenodd">
        <path d="M10.5,2.5 C11.9,2.5 13,3 13,5 L15,5 C15,2 13,0.5 10.5,0.5 C8,0.5 6,2 6,5 L8,5 C8,3 9.1,2.5 10.5,2.5 L10.5,2.5 Z M31.5,2.5 C32.9,2.5 34,3 34,5 L36,5 C36,2 34,0.5 31.5,0.5 C29,0.5 27,2 27,5 L29,5 C29,3 30.1,2.5 31.5,2.5 L31.5,2.5 Z M21,34 C29.5,34 37,28.5 40.9,19.4 L41.5,18 L0.5,18 L1.1,19.4 C5,28.5 12.5,34 21,34 L21,34 Z M38.4,20 C34.7,27.5 28.3,32 21,32 C13.7,32 7.3,27.5 3.6,20 L38.4,20 L38.4,20 Z" id="Shape" fill="#000000"></path>
    </g>
</svg>
